X:1
T:Title
%%score { ( 1 5 ) | ( 2 3 4 ) }
L:1/8
M:3/4
K:Bb
V:1 treble nm="Grand Piano"
V:5 treble 
V:2 bass 
V:3 bass 
V:4 bass 
V:1
 z2 z2[Q:1/4=94] [B,D]>[CE] | [DF]3 [DB] [Fd]>[Ec] | [DB]2 [DB]2 A>G | F2- F/B/A/G/ F>E | %4
[M:2/4] D4 |[M:1/4] D^F |[M:3/4] G3 G A>D | B2 B2 .[B,DB].[B,DB] | [A,CF]>[A,C] [CFA]3 [B,=EG] | %9
[M:2/4] F4 |[M:1/4] FG |[M:3/4] A3 F AB | c2 c2 AB | c3 =B cd | e4 z2 | [Fd]4 (3[Ec]dc | %16
 [B,DB]4 [B,DF]2 | E2- [E-G][EA] Bc | [Fd]2 [Fd]2 z2 | G2 d2 c2 | F4 z2 | A2 B2 c2 | [Fd]4 z2 | %23
 f3 e z c | c4 B2 | A2 d3 c |[M:2/4] [DB]4 |] %27
V:2
 z2 z2 [B,,F,]>[B,,F,] | [B,,B,]3 [B,,B,] [F,B,]>[F,A,] | [B,,B,]2 [B,,B,]2 [E,B,E]>[E,B,E] | %3
 [F,B,D]3 [F,B,E] [F,B,D]>[F,A,C] |[M:2/4] [B,,B,]4 |[M:1/4] B,[A,CD] | %6
[M:3/4] [G,B,D]3 [G,B,D] [^F,CD]>[F,C] | [G,B,D]2 [G,B,D]2 z/[K:treble] .d[K:bass]G/ | %8
 C,>C, C,3 C, |[M:2/4] [F,A,]4 |[M:1/4] [F,A,][F,B,F] |[M:3/4] [F,CF]3 [F,A,C] [F,CF][F,DF] | %12
 [F,EF]2 [F,EF]2 [F,F][F,G,F] | [F,A,F]3 [F,_A,F] [F,=A,F][F,B,F] | [F,CF]4 z2 | %15
 [B,,B,]4 (3z[K:treble] FE | B,,4 B,,2 | z2 C2 [B,D][A,F] | [B,,B,]2 [B,,B,]2 z2 | C2 z2 z2 | %20
 [F,D]4 [F,B,D]2 | C2 z2 z2 | [B,,B,]4 z2 | z2 z2 .C2 | [F,EF]4 [F,DF]2 | C2 z2 z2 | %26
[M:2/4] [B,,B,]4 |] %27
V:3
 x6 | x6 | x6 | x6 |[M:2/4] x4 |[M:1/4] x2 |[M:3/4] x6 | z2 z2 B,,[K:treble][K:bass]B,, | x6 | %9
[M:2/4] x4 |[M:1/4] x2 |[M:3/4] x6 | x6 | x6 | x6 | z2 z2 A,2[K:treble] | x6 | F,4 F,2 | x6 | %19
 [E,E]2- [E,G,E]2 [E,G,E]2 | x6 | [F,F]2- [F,DF]2 [F,A,F]2 | x6 | [E,B,]4 E,-[E,E] | x6 | %25
 [F,F]2- [F,B,F]3 [F,A,E] |[M:2/4] x4 |] %27
V:4
 x6 | x6 | x6 | x6 |[M:2/4] x4 |[M:1/4] x2 |[M:3/4] x6 | x9/2[K:treble] x/[K:bass] x | x6 | %9
[M:2/4] x4 |[M:1/4] x2 |[M:3/4] x6 | x6 | x6 | x6 | z2 z2 F,2[K:treble] | x6 | x6 | x6 | x6 | x6 | %21
 x6 | x6 | x6 | x6 | x6 |[M:2/4] x4 |] %27
V:5
 x6 | x6 | x6 | x6 |[M:2/4] x4 |[M:1/4] x2 |[M:3/4] x6 | x6 | x6 |[M:2/4] x4 |[M:1/4] x2 | %11
[M:3/4] x6 | x6 | x6 | x6 | x6 | x6 | [A,F]2 z2 z2 | x6 | x6 | z2 B,2 B2 | x6 | x6 | G4 G2 | x6 | %25
 x6 |[M:2/4] x4 |] %27

